dist/img/svg/telegram-icon.svg

<svg width="24" height="24" viewBox="0 0 24 24" fill="none" xmlns="http://www.w3.org/2000/svg">
<path d="M20.6646 3.717L2.93461 10.554C1.72461 11.04 1.73161 11.715 2.71261 12.016L7.26461 13.436L17.7966 6.791C18.2946 6.488 18.7496 6.651 18.3756 6.983L9.84261 14.684H9.84061L9.84261 14.685L9.52861 19.377C9.98861 19.377 10.1916 19.166 10.4496 18.917L12.6606 16.767L17.2596 20.164C18.1076 20.631 18.7166 20.391 18.9276 19.379L21.9466 5.151C22.2556 3.912 21.4736 3.351 20.6646 3.717Z" fill="white"/>
</svg>

<svg width="24" height="24" viewBox="0 0 24 24" fill="none" xmlns="http://www.w3.org/2000/svg"><path d="M20.665 3.717l-17.73 6.837c-1.21.486-1.203 1.161-.222 1.462l4.552 1.42 10.532-6.645c.498-.303.953-.14.579.192l-8.533 7.701H9.84l.002.001-.314 4.692c.46 0 .663-.211.92-.46l2.212-2.15 4.599 3.397c.848.467 1.457.227 1.668-.785l3.019-14.228c.309-1.239-.473-1.8-1.282-1.434z" fill="#fff"/></svg>
